outputs/icons/device/volte_sharp.svg

<svg xmlns="http://www.w3.org/2000/svg" width="1200" height="1200" fill="none"><g fill="#000" clip-path="url(#a)"><path d="M1100 552.755h-83.845a365.88 365.88 0 0 0-110.51-261.934A379.75 379.75 0 0 0 638.85 182.324V100c118.025 0 236.035 44.2 326.07 132.617a447 447 0 0 1 99.91 146.41A447.1 447.1 0 0 1 1100 552.755M481.582 301.329H371.601L290.234 593.32l-81.093-291.991H100l136.367 401.076h107.734zM424.902 764.765h-80.801V1100h221.484v-62.17H424.902zM544.905 827.17h98.765V1100h80.82V827.17H825.1v-62.405H544.905zM1099.53 1100H868.615V764.765H1100v62.405H949.415v70.68h127.11v60.1h-127.11v79.88h150.115z"/><path d="M846.35 349.024a295.33 295.33 0 0 0-207.5-84.375v82.304a210.94 210.94 0 0 1 148.22 60.293 203.2 203.2 0 0 1 45.4 66.549 203.2 203.2 0 0 1 15.985 78.96h83.85a284.6 284.6 0 0 0-22.385-110.556 284.5 284.5 0 0 0-63.57-93.175"/><path fill-rule="evenodd" d="M774.5 611.905a145.3 145.3 0 0 1-32.47 47.57 151.78 151.78 0 0 1-211.895 0 145.25 145.25 0 0 1-43.871-104.015 145.24 145.24 0 0 1 43.871-104.014 151.817 151.817 0 0 1 211.895 0 145.2 145.2 0 0 1 32.47 47.566 145.25 145.25 0 0 1 11.42 56.448c0 19.39-3.885 38.58-11.42 56.445M636.095 482.55a75.25 75.25 0 0 0-52.52 21.355 72 72 0 0 0-21.75 51.555 71.98 71.98 0 0 0 21.75 51.55 75.24 75.24 0 0 0 52.52 21.36 75.26 75.26 0 0 0 52.52-21.36 72.1 72.1 0 0 0 16.09-23.575 71.98 71.98 0 0 0 0-55.95 72.15 72.15 0 0 0-16.09-23.58 75.27 75.27 0 0 0-52.52-21.355"/></g><defs><clipPath id="a"><path fill="#fff" d="M0 0h1200v1200H0z"/></clipPath></defs></svg>

<svg width="1200" height="1200" viewBox="0 0 1200 1200" fill="none" xmlns="http://www.w3.org/2000/svg"><g clip-path="url(#clip0_833_1924)"><path d="M1100 552.755H1016.155C1016.145 503.93 1006.36 455.6 987.38 410.614C968.4 365.629 940.61 324.898 905.645 290.821C834.41 221.025 738.575 182.054 638.85 182.324V100C756.875 100 874.885 144.2 964.92 232.617C1007.665 274.264 1041.635 324.046 1064.83 379.027C1088.03 434.009 1099.99 493.079 1100 552.755Z" fill="black"/><path d="M481.582 301.329H371.601L290.234 593.32L209.141 301.329H100L236.367 702.405H344.101L481.582 301.329Z" fill="black"/><path d="M424.902 764.765H344.101V1100H565.585V1037.83H424.902V764.765Z" fill="black"/><path d="M544.905 827.17H643.67V1100H724.49V827.17H825.1V764.765H544.905V827.17Z" fill="black"/><path d="M1099.53 1100H868.615V764.765H1100V827.17H949.415V897.85H1076.525V957.95H949.415V1037.83H1099.53V1100Z" fill="black"/><path d="M846.35 349.024C790.945 294.741 716.41 264.434 638.85 264.649V346.953C694.255 346.803 747.5 368.461 787.07 407.246C806.495 426.178 821.93 448.805 832.47 473.795C843.015 498.784 848.45 525.63 848.455 552.755H932.305C932.295 514.78 924.685 477.188 909.92 442.199C895.16 407.209 873.545 375.529 846.35 349.024Z" fill="black"/><path fill-rule="evenodd" d="M774.5 611.905C766.96 629.77 755.92 645.945 742.03 659.475C713.685 687.105 675.67 702.57 636.085 702.57C596.5 702.57 558.48 687.105 530.135 659.475C516.25 645.94 505.215 629.77 497.681 611.905C490.146 594.04 486.264 574.85 486.264 555.46C486.264 536.07 490.146 516.88 497.681 499.015C505.215 481.151 516.25 464.977 530.135 451.446C558.485 423.824 596.505 408.365 636.085 408.365C675.665 408.365 713.68 423.824 742.03 451.446C755.92 464.975 766.96 481.148 774.5 499.012C782.035 516.875 785.92 536.07 785.92 555.46C785.92 574.85 782.035 594.04 774.5 611.905ZM636.095 482.55C616.47 482.55 597.625 490.213 583.575 503.905C576.69 510.615 571.22 518.63 567.485 527.485C563.75 536.335 561.825 545.85 561.825 555.46C561.825 565.07 563.75 574.58 567.485 583.435C571.22 592.29 576.69 600.305 583.575 607.01C597.625 620.705 616.47 628.37 636.095 628.37C655.715 628.37 674.56 620.705 688.615 607.01C695.495 600.305 700.965 592.29 704.705 583.435C708.44 574.58 710.365 565.07 710.365 555.46C710.365 545.85 708.44 536.335 704.705 527.485C700.965 518.63 695.495 510.615 688.615 503.905C674.56 490.213 655.715 482.55 636.095 482.55Z" fill="black"/></g><defs><clipPath id="clip0_833_1924"><path width="24" fill="white" d="M0 0H1200V1200H0V0z"/></clipPath></defs></svg>
